Catalina-dark/actions/16/kstars_clines.svg

<?xml version="1.0" encoding="UTF-8" standalone="no"?>
<svg
   xmlns:dc="http://purl.org/dc/elements/1.1/"
   xmlns:cc="http://creativecommons.org/ns#"
   xmlns:rdf="http://www.w3.org/1999/02/22-rdf-syntax-ns#"
   xmlns:svg="http://www.w3.org/2000/svg"
   xmlns="http://www.w3.org/2000/svg"
   xmlns:sodipodi="http://sodipodi.sourceforge.net/DTD/sodipodi-0.dtd"
   xmlns:inkscape="http://www.inkscape.org/namespaces/inkscape"
   width="16"
   height="16"
   viewBox="0 0 16 16"
   version="1.1"
   id="svg7"
   sodipodi:docname="kstars_clines.svg"
   inkscape:version="0.92.4 5da689c313, 2019-01-14">
  <metadata
     id="metadata11">
    <rdf:RDF>
      <cc:Work
         rdf:about="">
        <dc:format>image/svg+xml</dc:format>
        <dc:type
           rdf:resource="http://purl.org/dc/dcmitype/StillImage" />
      </cc:Work>
    </rdf:RDF>
  </metadata>
  <sodipodi:namedview
     pagecolor="#ffffff"
     bordercolor="#666666"
     borderopacity="1"
     objecttolerance="10"
     gridtolerance="10"
     guidetolerance="10"
     inkscape:pageopacity="0"
     inkscape:pageshadow="2"
     inkscape:window-width="640"
     inkscape:window-height="480"
     id="namedview9"
     showgrid="false"
     inkscape:zoom="14.75"
     inkscape:cx="6.8135593"
     inkscape:cy="8"
     inkscape:window-x="0"
     inkscape:window-y="26"
     inkscape:window-maximized="0"
     inkscape:current-layer="svg7" />
  <defs
     id="defs3">
    <style
       id="current-color-scheme"
       type="text/css">
   .ColorScheme-Text { color:#5c616c; } .ColorScheme-Highlight { color:#5294e2; }
  </style>
  </defs>
  <path
     style="fill:#f1f6f8;fill-opacity:0.8509804"
     class="ColorScheme-Text"
     d="M 13.279297 -0.021484375 L 13.279297 0 L 8.921875 7.359375 L 5.4570312 9.2070312 L 2.4609375 10.394531 L 0 15.59375 L 0.81835938 15.978516 L 3.1269531 11.082031 L 5.8378906 10.007812 L 9.1328125 8.2519531 L 11.988281 10.404297 L 16 5.0019531 L 13.279297 -0.021484375 z M 13.244141 1.8378906 L 14.927734 4.9472656 L 11.804688 9.1523438 L 9.8046875 7.6445312 L 13.244141 1.8378906 z"
     id="path5" />
</svg>

<svg width="16" height="16" version="1.1" viewBox="0 0 16 16" xmlns="http://www.w3.org/2000/svg">
<defs>
<style id="current-color-scheme" type="text/css">.ColorScheme-Text { color:#5c616c; } .ColorScheme-Highlight { color:#5294e2; }</style>
</defs>
<path class="ColorScheme-Text" d="m13.279-0.021484v0.021484l-4.3574 7.3594-3.4648 1.8477-2.9961 1.1875-2.4609 5.1992 0.81836 0.38477 2.3086-4.8965 2.7109-1.0742 3.2949-1.7559 2.8555 2.1523 4.0117-5.4023-2.7207-5.0234zm-0.035156 1.8594 1.6836 3.1094-3.123 4.2051-2-1.5078 3.4395-5.8066z" fill="#f1f6f8" fill-opacity=".85098"/>
</svg>
